app/images/icon/pdf.svg

<svg width="20" height="22" viewBox="0 0 20 22" fill="none" xmlns="http://www.w3.org/2000/svg">
<path d="M1.42856 0H13.5664L20 6.16827V20.625C20 21.3847 19.36 22 18.5714 22H1.42856C0.639966 22 0 21.3847 0 20.625V1.37499C0 0.615326 0.64004 0 1.42856 0Z" fill="#E2574C"/>
<path d="M18.9792 6.1884H13.9999C13.2113 6.1884 12.5713 5.57243 12.5713 4.81341V0.0146484L18.9792 6.1884Z" fill="#B53629"/>
<path d="M13.6411 10.4251C13.8805 10.4251 13.9976 10.2244 13.9976 10.0298C13.9976 9.82835 13.8754 9.63379 13.6411 9.63379H12.2783C12.0118 9.63379 11.8633 9.8462 11.8633 10.0807V13.3043C11.8633 13.5917 12.0333 13.7512 12.2633 13.7512C12.4919 13.7512 12.6626 13.5917 12.6626 13.3043V12.4195H13.4869C13.7426 12.4195 13.8705 12.2181 13.8705 12.0181C13.8705 11.8221 13.7426 11.6275 13.4869 11.6275H12.6626V10.4251H13.6411ZM9.0347 9.63379H8.03754C7.76681 9.63379 7.57465 9.81255 7.57465 10.0779V13.3071C7.57465 13.6364 7.85107 13.7395 8.04892 13.7395H9.09538C10.3339 13.7395 11.1518 12.9551 11.1518 11.7444C11.1511 10.4643 10.3811 9.63379 9.0347 9.63379ZM9.08259 12.9435H8.4747V10.4299H9.02258C9.85189 10.4299 10.2126 10.9655 10.2126 11.7046C10.2126 12.3962 9.85825 12.9435 9.08259 12.9435ZM5.42971 9.63379H4.44186C4.16256 9.63379 4.00684 9.81113 4.00684 10.0807V13.3043C4.00684 13.5917 4.1854 13.7512 4.42537 13.7512C4.66535 13.7512 4.84391 13.5917 4.84391 13.3043V12.3631H5.46319C6.22746 12.3631 6.85819 11.842 6.85819 11.0039C6.85827 10.1838 6.24971 9.63379 5.42971 9.63379ZM5.4133 11.607H4.84399V10.3907H5.4133C5.76473 10.3907 5.9883 10.6547 5.9883 10.9992C5.98756 11.343 5.76473 11.607 5.4133 11.607Z" fill="white"/>
</svg>

<svg width="20" height="22" fill="none" xmlns="http://www.w3.org/2000/svg"><path d="M1.429 0h12.137L20 6.168v14.457c0 .76-.64 1.375-1.429 1.375H1.43C.64 22 0 21.385 0 20.625V1.375C0 .615.64 0 1.429 0z" fill="#E2574C"/><path d="M18.98 6.188H14c-.789 0-1.429-.616-1.429-1.375V.015l6.408 6.173z" fill="#B53629"/><path d="M13.641 10.425c.24 0 .357-.2.357-.395 0-.202-.123-.396-.357-.396h-1.363c-.266 0-.415.212-.415.447v3.223c0 .288.17.447.4.447.229 0 .4-.16.4-.447v-.885h.824c.256 0 .383-.2.383-.4 0-.197-.127-.392-.383-.392h-.824v-1.202h.978zm-4.606-.791h-.997c-.271 0-.463.179-.463.444v3.23c0 .328.276.431.474.431h1.046c1.239 0 2.057-.784 2.057-1.995 0-1.28-.77-2.11-2.117-2.11zm.048 3.31h-.608V10.43h.548c.829 0 1.19.536 1.19 1.275 0 .691-.355 1.239-1.13 1.239zM5.43 9.633h-.988c-.28 0-.435.177-.435.447v3.223c0 .288.178.447.418.447s.419-.16.419-.447v-.94h.62c.763 0 1.394-.522 1.394-1.36 0-.82-.608-1.37-1.428-1.37zm-.017 1.973h-.569V10.39h.57c.35 0 .574.264.574.608s-.223.608-.575.608z" fill="#fff"/></svg>
